X:7043
T:High Reel, The
T:Sandy Duff
R:reel
E:7
M:C|
I:speed 350
K:AMix
|a2fa eA~A2|cAeA cA~A2|a2fa eA~A2|Bcdc BG~G2|\
a2fa eA~A2|(3Bcd ef g2fg|afge fded|Bcdc BG~G2||*
|(3cBA eA fAeA|(3cBA eA cA~A2|(3cBA eA fAeA|Bcdc BG~G2|\
(3cBA eA fAeA|(3Bcd ef g2fg|af(3gfe fded|Bcdc BG~G2||**
\vfil
\eject
